iED/img/icon/location.svg

<?xml version="1.0" encoding="UTF-8"?>
<svg width="18px" height="22px" viewBox="0 0 18 22" version="1.1" xmlns="http://www.w3.org/2000/svg" xmlns:xlink="http://www.w3.org/1999/xlink">
    <!-- Generator: Sketch 58 (84663) - https://sketch.com -->
    <title>icon/phone copy</title>
    <desc>Created with Sketch.</desc>
    <defs>
        <path d="M12.5,1.75 C14.7976025,1.75 16.9581846,2.64426563 18.5837021,4.26801953 C20.2090518,5.89168945 21.1056689,8.05101172 21.1082725,10.3482783 C21.1066348,12.0236406 20.6418232,13.5938545 19.6872148,15.1504209 C18.8605986,16.4982861 17.7867324,17.6743193 16.6498359,18.9193457 C15.5350693,20.1401006 14.3824258,21.4024697 13.461873,22.8588428 C13.3079717,23.1023555 13.0399775,23.25 12.7519531,23.25 L12.7519531,23.25 L12.2480469,23.25 C11.9600225,23.25 11.6920283,23.1023555 11.538127,22.8588848 C10.6175742,21.4025117 9.46493066,20.1401426 8.35016406,18.9193877 C7.21326758,17.6743193 6.13940137,16.4982861 5.31278516,15.1504629 C4.35821875,13.5938965 3.89336523,12.0237246 3.89172754,10.350126 C3.89437305,8.05105371 4.79094824,5.89173145 6.41629785,4.26806152 C8.04181543,2.64426563 10.2023555,1.75 12.5,1.75 Z M12.5,3.4296875 C8.68395996,3.4296875 5.57578223,6.53425391 5.57141504,10.350252 C5.57435449,13.3885547 7.43553223,15.4267715 9.5905293,17.7867744 C10.5817129,18.8722305 11.6016191,19.9891387 12.5,21.2736797 C13.3984229,19.9891387 14.4182871,18.8722305 15.4094707,17.7867744 C17.5644678,15.4267295 19.4256455,13.3885547 19.428585,10.3484463 C19.4242178,6.53425391 16.31604,3.4296875 12.5,3.4296875 Z M12.5,5.109375 C15.3943115,5.109375 17.7490234,7.46408691 17.7490234,10.3583984 C17.7490234,10.8721309 17.6747812,11.3800684 17.5284385,11.8681436 C17.3951553,12.3124629 16.9270684,12.5645 16.482749,12.4313428 C16.0384717,12.2981016 15.7863086,11.8299307 15.9195498,11.3856533 C16.0189453,11.054209 16.0693359,10.7085713 16.0693359,10.3583984 C16.0693359,8.3902666 14.4681318,6.7890625 12.5,6.7890625 C10.5318682,6.7890625 8.93066406,8.3902666 8.93066406,10.3583984 C8.93066406,12.3265303 10.5318682,13.9277344 12.5,13.9277344 C12.833292,13.9277344 13.1629307,13.8820049 13.4797197,13.7918477 C13.9258867,13.6648213 14.3904043,13.9235771 14.5174307,14.3696602 C14.644373,14.8157852 14.3857012,15.2803867 13.9395762,15.4073291 C13.4731689,15.5401084 12.9888311,15.6074219 12.5,15.6074219 C9.60568848,15.6074219 7.25097656,13.25271 7.25097656,10.3583984 C7.25097656,7.46408691 9.60568848,5.109375 12.5,5.109375 Z" id="path-1"></path>
    </defs>
    <g id="Desktop-(XL)" stroke="none" stroke-width="1" fill="none" fill-rule="evenodd">
        <g id="contact-us" transform="translate(-999.000000, -776.000000)">
            <g id="section-3" transform="translate(272.000000, 770.000000)">
                <g id="location" transform="translate(723.804214, 0.000000)">
                    <g id="icon/location" transform="translate(0.000000, 4.500000)">
                        <mask id="mask-2" fill="white">
                            <use xlink:href="#path-1"></use>
                        </mask>
                        <use id="Mask" fill="#000000" fill-rule="nonzero" xlink:href="#path-1"></use>
                        <g id="color/maroon-secondary" mask="url(#mask-2)" fill="#A8201A" fill-rule="evenodd">
                            <rect id="Rectangle" x="0" y="0" width="25.0037386" height="25.0037386"></rect>
                        </g>
                    </g>
                </g>
            </g>
        </g>
    </g>
</svg>

<svg width="18" height="22" viewBox="0 0 18 22" xmlns="http://www.w3.org/2000/svg" xmlns:xlink="http://www.w3.org/1999/xlink"><title>icon/phone copy</title><defs><path d="M12.5 1.75c2.298 0 4.458.894 6.084 2.518a8.552 8.552 0 0 1 2.524 6.08c-.001 1.676-.466 3.246-1.42 4.802-.827 1.348-1.901 2.524-3.038 3.77-1.115 1.22-2.268 2.482-3.188 3.939a.84.84 0 0 1-.71.391h-.504a.84.84 0 0 1-.71-.391c-.92-1.456-2.073-2.719-3.188-3.94-1.137-1.245-2.21-2.42-3.037-3.769-.955-1.556-1.42-3.126-1.421-4.8a8.552 8.552 0 0 1 2.524-6.082A8.552 8.552 0 0 1 12.5 1.75zm0 1.68c-3.816 0-6.924 3.104-6.929 6.92.003 3.039 1.865 5.077 4.02 7.437.99 1.085 2.01 2.202 2.909 3.487.898-1.285 1.918-2.402 2.91-3.487 2.154-2.36 4.016-4.398 4.019-7.439-.005-3.814-3.113-6.918-6.929-6.918zm0 1.68a5.255 5.255 0 0 1 5.028 6.758.84.84 0 0 1-1.608-.482 3.574 3.574 0 0 0-3.42-4.597 3.573 3.573 0 0 0-3.57 3.57 3.573 3.573 0 0 0 4.55 3.433.84.84 0 1 1 .46 1.615 5.255 5.255 0 0 1-6.689-5.049A5.255 5.255 0 0 1 12.5 5.11z" id="a"/></defs><g transform="translate(-3.196 -1.5)" fill="none" fill-rule="evenodd"><mask id="b" fill="#fff"><use xlink:href="#a"/></mask><use fill="#000" fill-rule="nonzero" xlink:href="#a"/><g mask="url(#b)" fill="#A8201A"><path d="M0 0h25.004v25.004H0z"/></g></g></svg>
